www/assets/icons/phone_callback.svg

<svg width="24" height="24" viewBox="0 0 24 24" xmlns="http://www.w3.org/2000/svg" fill='currentColor'><path d="M6.62 10.7951C8.06 13.6251 10.38 15.9351 13.21 17.3851L15.41 15.1851C15.68 14.9151 16.08 14.8251 16.43 14.9451C17.55 15.3151 18.76 15.5151 20 15.5151C20.55 15.5151 21 15.9651 21 16.5151V20.0051C21 20.5551 20.55 21.0051 20 21.0051C10.61 21.0051 3 13.3951 3 4.00512C3 3.45512 3.45 3.00512 4 3.00512H7.5C8.05 3.00512 8.5 3.45512 8.5 4.00512C8.5 5.25512 8.7 6.45512 9.07 7.57512C9.18 7.92512 9.1 8.31512 8.82 8.59512L6.62 10.7951ZM20.16 3.69512L19.45 2.99512L13 9.29512V5.00512H12V11.0051H18V10.0051H13.85L20.16 3.69512Z"/></svg>

<svg xmlns="http://www.w3.org/2000/svg" width="24" height="24" viewBox="0 0 24 24" fill='currentColor'><path d="M6.62 10.795c1.44 2.83 3.76 5.14 6.59 6.59l2.2-2.2c.27-.27.67-.36 1.02-.24 1.12.37 2.33.57 3.57.57.55 0 1 .45 1 1v3.49c0 .55-.45 1-1 1-9.39 0-17-7.61-17-17 0-.55.45-1 1-1h3.5c.55 0 1 .45 1 1 0 1.25.2 2.45.57 3.57.11.35.03.74-.25 1.02zm13.54-7.1-.71-.7-6.45 6.3v-4.29h-1v6h6v-1h-4.15z"/></svg>
